!!!COM: Palestrina, Giovanni Perluigi da
!!!OPR: Missa Tu es Petrus (1887)
!!!OTL: Sanctus
**kern	**kern	**kern	**kern	**kern	**kern
*Ibass	*Ibarit	*Itenor	*Icalto	*Icant	*Icant
!Bassus	!Baritone	!Tenor	!Altus	!Cantus 2	!Cantus 1
*clefF4	*clefF4	*clefGv2	*clefG2	*clefG2	*clefG2
*k[]	*k[]	*k[]	*k[]	*k[]	*k[]
*G:mix	*G:mix	*G:mix	*G:mix	*G:mix	*G:mix
*M4/2	*M4/2	*M4/2	*M4/2	*M4/2	*M4/2
=1	=1	=1	=1	=1	=1
0r	0r	2.G	1.g	1.b	0dd
.	.	4A	.	.	.
.	.	4B	.	.	.
.	.	4c	.	.	.
.	.	[2d	4f#	4a	.
.	.	.	4e	4g	.
=2	=2	=2	=2	=2	=2
0r	0r	2d]	2f#	2a	1dd
.	.	2G	2g	2b	.
.	.	4c	4e	1cc	[1ee
.	.	4d	4d	.	.
.	.	4e	4c	.	.
.	.	4f	4d	.	.
=3	=3	=3	=3	=3	=3
0r	0r	1g	4e	1b	2ee]
.	.	.	4f	.	.
.	.	.	1g	.	4dd
.	.	.	.	.	4cc
.	.	1d	.	2.a	1dd
.	.	.	2f	.	.
.	.	.	.	4b	.
=4	=4	=4	=4	=4	=4
2.C	1.c	0g	1.e	1cc	2.ee
4D	.	.	.	.	4ff
4E	.	.	.	1r	[1gg
4F	.	.	.	.	.
[2G	4B	.	4d	.	.
.	4A	.	4c	.	.
=5	=5	=5	=5	=5	=5
2G]	2B	1g	2d	1r	1gg]
2C	2c	.	2e	.	.
4F	4A	[1a	1f	2r	1r
4G	4G	.	.	.	.
4A	4F	.	.	[2cc	.
4B	4G	.	.	.	.
=6	=6	=6	=6	=6	=6
1c	4A	2a]	1e	4cc]	0r
.	4B	.	.	4dd	.
.	1c	2g	.	4ee	.
.	.	.	.	4ff	.
1G	.	1g	1d	2.gg	.
.	2B	.	.	.	.
.	.	.	.	4ff	.
=7	=7	=7	=7	=7	=7
2.A	1c	2r	0r	4ee	2.cc
.	.	.	.	4dd	.
.	.	2.c	.	2.ee	.
4B	.	.	.	.	4dd
1c	1C	.	.	.	4ee
.	.	4d	.	4dd	4ff
.	.	4e	.	2cc	[2gg
.	.	4f	.	.	.
=8	=8	=8	=8	=8	=8
0r	0r	2g	0r	2b	2gg]
.	.	2d	.	2.dd	2ff
.	.	1a	.	.	2.ee
.	.	.	.	4cc	.
.	.	.	.	[2cc	.
.	.	.	.	.	8dd
.	.	.	.	.	8cc
=9	=9	=9	=9	=9	=9
0r	2.G	2.g	2r	2cc]	[0dd
.	.	.	1g	1b	.
.	4A	8f	.	.	.
.	.	8e	.	.	.
.	4B	1d	.	.	.
.	4c	.	.	.	.
.	[2d	.	4f#	4a	.
.	.	.	4e	4g	.
=10	=10	=10	=10	=10	=10
0r	4d]	2r	2f#	2a	1dd]
.	4c	.	.	.	.
.	2B	2d	2g	2b	.
.	1A	2e	4c	1cc	1r
.	.	.	4d	.	.
.	.	2c	4e	.	.
.	.	.	4f#	.	.
=11	=11	=11	=11	=11	=11
2r	1G	2d	1g	1b	2r
1G	.	4G	.	.	1b
.	.	4A	.	.	.
.	1r	4B	2r	1dd	.
.	.	4c	.	.	.
4F#	.	[2d	[2a	.	4a
4E	.	.	.	.	4g
=12	=12	=12	=12	=12	=12
2F#	1r	2d]	2a]	1dd	2a
2G	.	2B	2g	.	2b
4C	2r	1c	4e	1ee	[1g
4D	.	.	4f#	.	.
4E	[2G	.	4g	.	.
4F#	.	.	4a	.	.
=13	=13	=13	=13	=13	=13
1G	4G]	1B	4b	0dd	1g]
.	4A	.	4a	.	.
.	4B	.	1g	.	.
.	4G	.	.	.	.
1D	1d	1A	.	.	1a
.	.	.	2f#	.	.
=14	=14	=14	=14	=14	=14
1G	2d	1G	[0g	2r	2b
.	2.G	.	.	2.b	2.dd
1r	.	1r	.	.	.
.	4G	.	.	4b	4dd
.	2G	.	.	2b	2dd
=15	=15	=15	=15	=15	=15
0r	2c	0r	0g]	2cc	2ee
.	2B	.	.	2dd	2dd
.	2c	.	.	2ee	2cc
.	2c	.	.	2ee	2cc
=16	=16	=16	=16	=16	=16
2r	1G	2r	2r	2.dd	2.b
2.G	.	2.B	2.d	.	.
.	.	.	.	4cc	4cc
.	1r	.	.	2.b	1dd
4G	.	4B	4d	.	.
2G	.	2B	2d	.	.
.	.	.	.	4a	.
=17	=17	=17	=17	=17	=17
2c	0r	2c	2e	[0g	0r
2B	.	2d	2.d	.	.
2c	.	2e	.	.	.
.	.	.	4c	.	.
2c	.	2e	[2c	.	.
=18	=18	=18	=18	=18	=18
0G	0r	2d	2c]	1g]	2r
.	.	2.d	4B	.	2.dd
.	.	.	4A	.	.
.	.	.	2.B	2r	.
.	.	4d	.	.	4dd
.	.	2d	.	[2dd	2dd
.	.	.	4A	.	.
=19	=19	=19	=19	=19	=19
0r	0r	2g	2G	4dd]	2b
.	.	.	.	4dd	.
.	.	2f#	2d	2dd	2a
.	.	2g	2G	1b	[1dd
.	.	2g	[2g	.	.
=20	=20	=20	=20	=20	=20
2r	2r	1d	2g]	0a	2dd]
2.D	2.d	.	4f#	.	2dd
.	.	.	4e	.	.
.	.	1r	1f#	.	[1dd
4D	4d	.	.	.	.
2D	2d	.	.	.	.
=21	=21	=21	=21	=21	=21
2G	2B	1d	1r	2g	1dd]
2F#	2A	.	.	2a	.
2G	1B	1d	2r	1g	2r
2G	.	.	[2g	.	[2gg
=22	=22	=22	=22	=22	=22
1C	1.c	2.e	4g]	2r	4gg]
.	.	.	4g	.	4gg
.	.	.	2g	2.gg	2gg
.	.	4f	.	.	.
1r	.	[1g	2cc	.	2ee
.	.	.	.	4gg	.
.	2G	.	2b	2gg	[2dd
=23	=23	=23	=23	=23	=23
0r	1C	1g]	2cc	1ee	2dd]
.	.	.	2cc	.	1cc
.	2r	2r	1g	2.dd	.
.	[2G	[2g	.	.	4b
.	.	.	.	4cc	4a
=24	=24	=24	=24	=24	=24
2r	4G]	4g]	1r	2dd	2b
.	4G	4g	.	.	.
2.C	2G	2g	.	2ee	2cc
.	2c	2e	2r	2r	1g
4C	.	.	.	.	.
2G	2B	2d	[2g	[2gg	.
=25	=25	=25	=25	=25	=25
1.C	2c	4c	4g]	4gg]	2r
.	.	4d	4g	4gg	.
.	2c	4e	2g	2gg	2.cc
.	.	4f	.	.	.
.	[1G	2.g	2cc	2ee	.
.	.	.	.	.	4cc
2G	.	.	2b	[2dd	2dd
.	.	4f	.	.	.
=26	=26	=26	=26	=26	=26
4C	0G]	1e	1g	2dd]	2ee
4D	.	.	.	.	.
4E	.	.	.	1cc	2gg
4F	.	.	.	.	.
2G	.	1d	1g	.	2gg
2G	.	.	.	2b	2dd
=27	=27	=27	=27	=27	=27
1C	1r	1c	2g	0cc	1ee
.	.	.	1e	.	.
1r	1A	2r	.	.	2r
.	.	2c	2f	.	2a
=28	=28	=28	=28	=28	=28
0r	2G	2d	2g	0r	2b
.	2F	1f	2.a	.	2cc
.	1B-	.	.	.	1dd
.	.	.	8g	.	.
.	.	.	8f	.	.
.	.	4e	2g	.	.
.	.	4d	.	.	.
=29	=29	=29	=29	=29	=29
2r	1A	2.e	1a	2r	1cc
2A	.	.	.	2a	.
.	.	4f	.	.	.
2G	1r	2g	2d	2b	1r
2F	.	[2a	[2f	2cc	.
=30	=30	=30	=30	=30	=30
1B-	1r	2a]	2f]	1dd	1r
.	.	2g	4e	.	.
.	.	.	4d	.	.
1A	2r	1a	1e	1cc	2r
.	2A	.	.	.	[2ee
=31	=31	=31	=31	=31	=31
2r	2.c	4A	1e	2r	2ee]
.	.	4B	.	.	.
2A	.	4c	.	1ee	2.cc
.	4B	4d	.	.	.
2.c	2.A	1e	2r	.	.
.	.	.	.	.	4b
.	.	.	2A	[2cc	[2a
4B	4G	.	.	.	.
=32	=32	=32	=32	=32	=32
2.A	2.F	0f	1c	4cc]	4a]
.	.	.	.	4b	4b
.	.	.	.	2.a	2.cc
4G	4G	.	.	.	.
1F	1A	.	2A	.	.
.	.	.	.	4g	4b
.	.	.	[2c	2f	2a
=33	=33	=33	=33	=33	=33
2C	1c	1g	4c]	2e	2g
.	.	.	4d	.	.
2c	.	.	2e	2.g	2cc
2B	1r	1r	2d	.	2dd
.	.	.	.	4g	.
2c	.	.	2c	2g	2ee
=34	=34	=34	=34	=34	=34
1F	1r	2r	1cc	1a	1ff
.	.	2.c	.	.	.
1c	2r	.	2cc	2g	2.ee
.	.	4d	.	.	.
.	2c	2e	[2g	2cc	.
.	.	.	.	.	4ff
=35	=35	=35	=35	=35	=35
0r	2B	2d	4g]	2dd	1gg
.	.	.	4g	.	.
.	2c	2g	2e	2ee	.
.	1F	4a	4cc	4ff	1r
.	.	4g	4b	4ee	.
.	.	4f	2a	4dd	.
.	.	4e	.	4cc	.
=36	=36	=36	=36	=36	=36
1r	2G	2d	2g	2b	1r
.	2A	2c	2f#	1cc	.
2r	1G	2d	1g	.	2r
2G	.	2d	.	2b	2g
=37	=37	=37	=37	=37	=37
2F#	0r	2d	2r	2a	2a
2G	.	2d	1g	4g	2b
.	.	.	.	4f	.
1C	.	4e	.	1e	4cc
.	.	4d	.	.	4b
.	.	4c	2e	.	4a
.	.	4B	.	.	4g
=38	=38	=38	=38	=38	=38
2D	1r	2A	2d	1r	2f#
2E	.	2G	2c	.	1g
1D	2r	1A	[1d	2r	.
.	2D	.	.	2a	2f#
=39	=39	=39	=39	=39	=39
0r	2.G	2G	0d]	2.b	1g
.	.	2d	.	.	.
.	4G	.	.	4b	.
.	2G	2g	.	2b	1r
.	2G	2g	.	2b	.
=40	=40	=40	=40	=40	=40
1r	1A	2e	2r	1cc	1r
.	.	2c	2e	.	.
2r	1G	1d	2.g	4b	1dd
.	.	.	.	4cc	.
2G	.	.	.	4dd	.
.	.	.	4g	4b	.
=41	=41	=41	=41	=41	=41
2.c	0r	1c	2g	0cc	2.ee
.	.	.	2g	.	.
4c	.	.	.	.	4ee
2c	.	1r	4a	.	2ee
.	.	.	4g	.	.
2c	.	.	[2cc	.	2ee
=42	=42	=42	=42	=42	=42
1d	0r	2r	2cc]	1r	1ff
.	.	2d	2b	.	.
[1c	.	2.g	1cc	2r	2ee
.	.	.	.	2g	4gg
.	.	4g	.	.	4ff
=43	=43	=43	=43	=43	=43
1c]	0r	2g	0r	2.cc	4ee
.	.	.	.	.	4dd
.	.	2g	.	.	2.ee
.	.	.	.	4cc	.
1r	.	1a	.	2cc	.
.	.	.	.	.	4dd
.	.	.	.	2cc	[2cc
=44	=44	=44	=44	=44	=44
0r	1G	1g	2r	1dd	2cc]
.	.	.	2g	.	2b
.	2.c	1r	2g	2.ee	4cc
.	.	.	.	.	4dd
.	.	.	2g	.	4ee
.	4c	.	.	4dd	4ff
=45	=45	=45	=45	=45	=45
1r	2c	0r	2a	2.cc	1ee
.	2c	.	1g	.	.
.	.	.	.	4b	.
1D	[1d	.	.	1a	1dd
.	.	.	2f#	.	.
=46	=46	=46	=46	=46	=46
1.G	1d]	2r	0g	1b	2r
.	.	2G	.	.	2dd
.	1B	[1d	.	2r	2dd
2G	.	.	.	2dd	2dd
=47	=47	=47	=47	=47	=47
1G	2.G	2d]	[0g	2dd	2b
.	.	2d	.	2dd	2g
.	4A	.	.	.	.
1G	1B	2d	.	2b	2.gg
.	.	2d	.	2g	.
.	.	.	.	.	4ff
=48	=48	=48	=48	=48	=48
0C	1c	1e	1g_	4gg	4ee
.	.	.	.	4ff	4dd
.	.	.	.	4ee	4cc
.	.	.	.	4dd	4b
.	2.G	1c	1g_	1ee	1cc
.	4A	.	.	.	.
=49	=49	=49	=49	=49	=49
0G	0B	0d	0g]	0dd	0b
==	==	==	==	==	==
*-	*-	*-	*-	*-	*-
!!!CDT: 1525/^1526/-1594/2/2
!!!OCY: Italia
!!!AGN: Mass (Parody)
!!!AST: renaissance, vocal
!!!ASW: Motet 1572 (Palestrina)
!!!PWK: Masses, Book 11
!!!RNB: Cadence finals: C,D
!!!YOR: Le Opere Complete, v. 28, p. 268
!!!YOO: Rome, Italy: Fratelli Scalera
!!!END: 1992//
!!!EED: John Miller
!!!YEC: Copyright 2000, John Miller
!!!YEN: United States of America
!!!YEM: Rights to all derivative electronic formats reserved.
!!!YEM: Refer to licensing agreement for further details.
!!!YEM: This file must be accompanied by the licensing agreement.
!!!YEM: A copy of the licensing agreement may be found at http://www.music-cog.ohio-state.edu/HumdrumDatabases/Palestrina/license.txt
!!!EMD: converted to Humdrum by Bret Aarden
